papirus/16x16/apps/qtractor.svg

<svg height="16" width="16" xmlns="http://www.w3.org/2000/svg" xmlns:xlink="http://www.w3.org/1999/xlink"><radialGradient id="a" cx="198.31" cy="109.06" fx="143.62" fy="122.04" gradientTransform="matrix(.06158485 -.00512799 .00635405 .07971973 -.79043896 -1.9061673)" gradientUnits="userSpaceOnUse" r="63.507999"><stop offset="0" stop-color="#1d1100" stop-opacity=".66667"/><stop offset=".52659" stop-color="#4f340c" stop-opacity=".30196"/><stop offset="1" stop-color="#3d3001" stop-opacity="0"/></radialGradient><path d="m8.5998 4.000245l.4002 3.6843331c0 0-2.64714-.3145799-3.6000001.3684217-.8987999.6439999-1.2 2.9470002-1.2 2.9470002h-1.1999999c0 0 .075024-2.6246503.79998-3.6842169 1.0663199-1.5584332 4.8-3.3157831 4.8-3.3157831z" fill="#c6ae91"/><ellipse cx="10.032227" cy="8.8945675" fill="#d1bda5" rx="3.9098215" ry="5.0707393" transform="matrix(.96610226 -.2581597 .25947925 .96574868 0 0)"/><path d="m8.8245476 1.6723379c-1.0383975.9997494-1.1800446 3.8088316.0610783 6.7321386 1.2327781 2.8806445 4.9703581 2.6011495 5.9005491 1.5809454.938534-.9773549 2.261985-3.4259342-.169338-6.9316882-2.41465-3.41986626-4.7206349-2.38908962-5.7922764-1.3818337z" fill="url(#a)" fill-rule="evenodd" stroke-width="1pt"/><rect fill="#0b0b0b" height="1" rx=".72103637" ry="1" width="6" x="2" y="9"/><path d="m .7694117 10.000032h8.4611763c.4264707 0 .7694119.334667.7694119.75v4.5c0 .415333-.3429412.75-.7694119.75h-8.4611763c-.42635293 0-.76941175-.334667-.76941175-.75v-4.5c0-.415333.34305882-.75.76923528-.75z" fill="#c6ae91"/><rect fill="#c69191" height="4" rx=".46153635" ry=".5" width="6" x="2" y="11"/></svg>

<?xml version="1.0" encoding="UTF-8" standalone="no"?>
<!-- Created with Inkscape (http://www.inkscape.org/) -->

<svg
   xmlns:dc="http://purl.org/dc/elements/1.1/"
   xmlns:cc="http://creativecommons.org/ns#"
   xmlns:rdf="http://www.w3.org/1999/02/22-rdf-syntax-ns#"
   xmlns:svg="http://www.w3.org/2000/svg"
   xmlns="http://www.w3.org/2000/svg"
   xmlns:sodipodi="http://sodipodi.sourceforge.net/DTD/sodipodi-0.dtd"
   xmlns:inkscape="http://www.inkscape.org/namespaces/inkscape"
   id="svg2817"
   height="16"
   width="16"
   version="1.0"
   inkscape:version="0.91 r13725"
   sodipodi:docname="qtractor.svg">
  <sodipodi:namedview
     pagecolor="#ffffff"
     bordercolor="#666666"
     borderopacity="1"
     objecttolerance="10"
     gridtolerance="10"
     guidetolerance="10"
     inkscape:pageopacity="0"
     inkscape:pageshadow="2"
     inkscape:window-width="1600"
     inkscape:window-height="847"
     id="namedview19"
     showgrid="false"
     inkscape:zoom="1"
     inkscape:cx="-11.728814"
     inkscape:cy="11.378394"
     inkscape:window-x="0"
     inkscape:window-y="0"
     inkscape:window-maximized="1"
     inkscape:current-layer="svg2817" />
  <metadata
     id="metadata57">
    <rdf:RDF>
      <cc:Work
         rdf:about="">
        <dc:format>image/svg+xml</dc:format>
        <dc:type
           rdf:resource="http://purl.org/dc/dcmitype/StillImage" />
        <dc:title></dc:title>
      </cc:Work>
    </rdf:RDF>
  </metadata>
  <defs
     id="defs2819">
    <radialGradient
       id="radialGradient3035"
       fx="143.62"
       fy="122.04"
       gradientUnits="userSpaceOnUse"
       cy="109.06"
       cx="198.31"
       gradientTransform="matrix(0.06158485,-0.00512799,0.00635405,0.07971973,-0.79043896,-1.9061673)"
       r="63.507999">
      <stop
         id="stop2284"
         stop-color="#1d1100"
         stop-opacity=".66667"
         offset="0" />
      <stop
         id="stop2292"
         stop-color="#4f340c"
         stop-opacity=".30196"
         offset=".52659" />
      <stop
         id="stop2285"
         stop-color="#3d3001"
         stop-opacity="0"
         offset="1" />
    </radialGradient>
  </defs>
  <path
     style="fill:#c6ae91"
     inkscape:connector-curvature="0"
     id="rect4187"
     d="M 8.5998,4.000245 9,7.6845781 c 0,0 -2.64714,-0.3145799 -3.6000001,0.3684217 C 4.5012,8.6969997 4.1999999,11 4.1999999,11 L 3,11 C 3,11 3.075024,8.3753497 3.79998,7.3157831 4.8662999,5.7573499 8.59998,4 8.59998,4 Z" />
  <ellipse
     style="fill:#d1bda5"
     id="path4185"
     rx="3.9098215"
     ry="5.0707393"
     transform="matrix(0.96610226,-0.2581597,0.25947925,0.96574868,0,0)"
     cy="8.8945675"
     cx="10.032227" />
  <path
     inkscape:connector-curvature="0"
     style="fill:url(#radialGradient3035);fill-rule:evenodd;stroke-width:1pt"
     id="path2282"
     d="M 8.8245476,1.6723379 C 7.7861501,2.6720873 7.644503,5.4811695 8.8856259,8.4044765 10.118404,11.285121 13.855984,11.005626 14.786175,9.9854219 15.724709,9.008067 17.04816,6.5594877 14.616837,3.0537337 12.202187,-0.36613256 9.8962021,0.66464408 8.8245606,1.6719 Z" />
  <rect
     style="fill:#0b0b0b"
     id="rect4208"
     rx="0.72103637"
     ry="1"
     height="1"
     width="6"
     y="9"
     x="2" />
  <path
     style="fill:#c6ae91"
     inkscape:connector-curvature="0"
     id="rect4183"
     d="m 0.7694117,10.000032 8.4611763,0 c 0.4264707,0 0.7694119,0.334667 0.7694119,0.75 l 0,4.5 c 0,0.415333 -0.3429412,0.75 -0.7694119,0.75 l -8.4611763,0 c -0.42635293,0 -0.769411750591998,-0.334667 -0.769411750591998,-0.75 l 0,-4.5 C -5.0592e-8,10.334699 0.34305877,10.000032 0.76923523,10.000032 Z" />
  <rect
     style="fill:#c69191"
     id="rect4210"
     rx="0.46153635"
     ry="0.5"
     height="4"
     width="6"
     y="11"
     x="2" />
</svg>
